X:1
T:Second Degree I - Etude 1
%%singleline true
%%SYMBOL_SCALE_FACTOR 2
%%BAR_OFFSET 0.3
%%score { 1 | 2 }
L:1/4
Q:1/4=80
M:4/4
I:linebreak $
K:C
V:1 treble stafflines=5
V:2 bass
V:1
 c d e f | g f e d | c d e f | g f e2 | c d e f | g f e d | c d e f | g e g e |
 c4 | g4 | c4 | g4 | c4 | g4 | c g e g | c4 |]
V:2
 C,4 | G,4 | C,4 | G,4 | C,4 | G,4 | C,4 | G,4 |
 C, D, E, F, | G, F, E, D, | C, D, E, F, | G, F, E,2 | C, D, E, F, | G, F, E, D, | C, G, E, G, | C,4 |]
 